static/logos/audi-glyph-color.svg

<svg width="32" height="32" viewBox="0 0 32 32" fill="none" xmlns="http://www.w3.org/2000/svg">
<path fill-rule="evenodd" clip-rule="evenodd" d="M5.58991 11C2.5245 11 -0.0510283 13.5306 0.000767908 16.5905C0.0516066 19.5934 2.54027 22 5.59027 22C6.8999 22 8.10608 21.5563 9.06016 20.812C10.0143 21.5562 11.2205 22 12.5302 22C13.8398 22 15.046 21.5563 16.0001 20.812C16.9542 21.5562 18.1604 22 19.4701 22C20.7798 22 21.986 21.5563 22.94 20.812C23.8942 21.5562 25.1004 22 26.4101 22C29.4597 22 31.9484 19.5938 31.9992 16.5905C32.051 13.5304 29.4754 11 26.4099 11C25.1111 11 23.9003 11.4542 22.94 12.2104C21.9795 11.4542 20.7686 11 19.4698 11C18.171 11 16.9603 11.4542 15.9999 12.2104C15.0396 11.4542 13.8288 11 12.53 11C11.2312 11 10.0204 11.4542 9.06004 12.2105C8.09965 11.4542 6.88874 11 5.58991 11ZM12.5302 20.7518C11.5705 20.7518 10.6833 20.4441 9.96546 19.9232C10.7071 19.0067 11.1581 17.8512 11.1794 16.5905C11.2016 15.2766 10.7395 14.0604 9.96228 13.1002C10.686 12.5665 11.578 12.2482 12.53 12.2482C13.4821 12.2482 14.374 12.5665 15.0977 13.1001C14.3204 14.0604 13.8582 15.2768 13.8803 16.5906C13.9018 17.8512 14.3529 19.0068 15.0947 19.9233C14.3769 20.4442 13.4898 20.7518 12.5302 20.7518ZM9.91349 16.5697C9.92973 15.6102 9.60767 14.7149 9.06006 13.9908C8.51245 14.7149 8.19039 15.6102 8.20663 16.5697C8.22228 17.4943 8.5373 18.3464 9.06013 19.0368C9.58286 18.3464 9.89783 17.4944 9.91349 16.5697ZM6.94071 16.5905C6.91847 15.2766 7.38057 14.0604 8.15783 13.1002C7.43411 12.5665 6.54203 12.2482 5.58991 12.2482C3.2229 12.2482 1.22685 14.2162 1.26669 16.5697C1.30595 18.8891 3.2289 20.7518 5.59027 20.7518C6.54983 20.7518 7.43703 20.4442 8.15483 19.9232C7.41304 19.0067 6.96205 17.8512 6.94071 16.5905ZM18.1193 16.5905C18.1416 15.2766 17.6795 14.0604 16.9022 13.1001C17.6258 12.5665 18.5178 12.2482 19.4698 12.2482C20.4219 12.2482 21.314 12.5665 22.0378 13.1002C21.2605 14.0604 20.7984 15.2766 20.8206 16.5905C20.8419 17.8512 21.2929 19.0067 22.0347 19.9232C21.3169 20.4442 20.4297 20.7518 19.4701 20.7518C18.5105 20.7518 17.6233 20.4441 16.9054 19.9232C17.6471 19.0067 18.098 17.8512 18.1193 16.5905ZM22.0865 16.5697C22.0703 15.6102 22.3924 14.7148 22.94 13.9907C23.4877 14.7148 23.8097 15.6102 23.7934 16.5697C23.7777 17.4944 23.4627 18.3464 22.94 19.0368C22.4172 18.3464 22.1022 17.4943 22.0865 16.5697ZM26.4101 20.7518C25.4504 20.7518 24.5632 20.4441 23.8453 19.9232C24.587 19.0068 25.0379 17.8513 25.0593 16.5906C25.0817 15.2765 24.6196 14.0603 23.8423 13.1001C24.5659 12.5665 25.4579 12.2482 26.4099 12.2482C28.7771 12.2482 30.7732 14.216 30.7333 16.5697C30.694 18.8895 28.7711 20.7518 26.4101 20.7518ZM16.8534 16.599C16.8696 15.6395 16.5476 14.7442 15.9999 14.0201C15.4523 14.7442 15.1303 15.6395 15.1465 16.599C15.1622 17.5236 15.4772 18.3757 16 19.0661C16.5227 18.3757 16.8377 17.5237 16.8534 16.599Z" fill="black"/>
</svg>

<svg xmlns="http://www.w3.org/2000/svg" width="64" height="64" fill="none" viewBox="0 0 32 32"><path fill="#000" fill-rule="evenodd" d="M5.59 11C2.525 11-.051 13.53 0 16.59.053 19.594 2.54 22 5.59 22c1.31 0 2.516-.444 3.47-1.188A5.63 5.63 0 0 0 12.53 22c1.31 0 2.516-.444 3.47-1.188A5.63 5.63 0 0 0 19.47 22c1.31 0 2.516-.444 3.47-1.188A5.63 5.63 0 0 0 26.41 22c3.05 0 5.538-2.406 5.59-5.41.051-3.06-2.525-5.59-5.59-5.59-1.299 0-2.51.454-3.47 1.21A5.6 5.6 0 0 0 19.47 11c-1.299 0-2.51.454-3.47 1.21A5.6 5.6 0 0 0 12.53 11c-1.299 0-2.51.454-3.47 1.21A5.6 5.6 0 0 0 5.59 11m6.94 9.752c-.96 0-1.847-.308-2.565-.829a5.39 5.39 0 0 0-.003-6.823 4.33 4.33 0 0 1 2.568-.852c.952 0 1.844.319 2.568.852a5.39 5.39 0 0 0-.003 6.823 4.35 4.35 0 0 1-2.565.829M9.913 16.57a4.15 4.15 0 0 0-.853-2.58 4.15 4.15 0 0 0 0 5.047 4.2 4.2 0 0 0 .853-2.467m-2.972.02a5.4 5.4 0 0 1 1.217-3.49 4.33 4.33 0 0 0-2.568-.852c-2.367 0-4.363 1.968-4.323 4.322.039 2.32 1.962 4.182 4.323 4.182.96 0 1.847-.308 2.565-.829a5.42 5.42 0 0 1-1.214-3.332m11.178 0a5.4 5.4 0 0 0-1.217-3.49 4.33 4.33 0 0 1 2.568-.852c.952 0 1.844.319 2.568.852a5.39 5.39 0 0 0-.003 6.823 4.35 4.35 0 0 1-2.565.829c-.96 0-1.847-.308-2.565-.829a5.43 5.43 0 0 0 1.214-3.332m3.968-.02a4.15 4.15 0 0 1 .853-2.58 4.15 4.15 0 0 1 0 5.047 4.2 4.2 0 0 1-.854-2.467m4.323 4.182c-.96 0-1.847-.308-2.565-.829a5.388 5.388 0 0 0-.003-6.823 4.33 4.33 0 0 1 2.568-.852c2.367 0 4.363 1.968 4.323 4.322-.039 2.32-1.962 4.182-4.323 4.182m-9.557-4.153A4.15 4.15 0 0 0 16 14.02a4.15 4.15 0 0 0 0 5.046 4.2 4.2 0 0 0 .853-2.467" clip-rule="evenodd"/></svg>
